X:1
T:I Am a Suffragette
M:3/4
L:1/4
K:C
 z2 G,| G2 ^F| G2 E| ^F2 D| G3| C E G| c2 A| G3-| G3| G, F ^C| D3|\
 G, A ^F| G2 E/2E/2| D2 ^F| B2 A| G3| z2 G,| G2 ^F| G2 E| ^F2 D| G3|\
 C E G| c2 A| G3-| G2 G,| A,2 A,| B,2 B,| C2 C| F3| G G A| E2 D| C3-|\
 C2 z|
